PR6/img/logo.svg

<svg fill="none" height="46" viewBox="0 0 33 46" width="33" xmlns="http://www.w3.org/2000/svg"><path d="m28.05 0h-23.1c-2.73281 0-4.95 1.93164-4.95 4.3125v37.375c0 2.3809 2.21719 4.3125 4.95 4.3125h23.1c2.7328 0 4.95-1.9316 4.95-4.3125v-37.375c0-2.38086-2.2172-4.3125-4.95-4.3125zm-11.55 43.125c-1.8253 0-3.3-1.2848-3.3-2.875s1.4747-2.875 3.3-2.875 3.3 1.2848 3.3 2.875-1.4747 2.875-3.3 2.875zm11.55-9.7031c0 .5929-.5569 1.0781-1.2375 1.0781h-20.625c-.68062 0-1.2375-.4852-1.2375-1.0781v-28.03128c0-.59296.55688-1.07812 1.2375-1.07812h20.625c.6806 0 1.2375.48516 1.2375 1.07812z" fill="#fff"/></svg>

<svg width="33" height="46" viewBox="0 0 33 46" fill="none" xmlns="http://www.w3.org/2000/svg">
<path d="M28.05 0H4.95C2.21719 0 0 1.93164 0 4.3125V41.6875C0 44.0684 2.21719 46 4.95 46H28.05C30.7828 46 33 44.0684 33 41.6875V4.3125C33 1.93164 30.7828 0 28.05 0ZM16.5 43.125C14.6747 43.125 13.2 41.8402 13.2 40.25C13.2 38.6598 14.6747 37.375 16.5 37.375C18.3253 37.375 19.8 38.6598 19.8 40.25C19.8 41.8402 18.3253 43.125 16.5 43.125ZM28.05 33.4219C28.05 34.0148 27.4931 34.5 26.8125 34.5H6.1875C5.50688 34.5 4.95 34.0148 4.95 33.4219V5.39062C4.95 4.79766 5.50688 4.3125 6.1875 4.3125H26.8125C27.4931 4.3125 28.05 4.79766 28.05 5.39062V33.4219Z" fill="white"/>
</svg>
